svg/l/GD.svg

<svg width="32" height="24" viewBox="0 0 32 24" fill="none" xmlns="http://www.w3.org/2000/svg">
<g clip-path="url(#clip0_270_67369)">
<rect width="32" height="24" fill="white"/>
<path fill-rule="evenodd" clip-rule="evenodd" d="M0 0H32V24H0V0Z" fill="#C51918"/>
<path fill-rule="evenodd" clip-rule="evenodd" d="M6 6H26V18H6V6Z" fill="#FECA00"/>
<mask id="mask0_270_67369" style="mask-type:luminance" maskUnits="userSpaceOnUse" x="6" y="6" width="20" height="12">
<path fill-rule="evenodd" clip-rule="evenodd" d="M6 6H26V18H6V6Z" fill="white"/>
</mask>
<g mask="url(#mask0_270_67369)">
<path fill-rule="evenodd" clip-rule="evenodd" d="M6 6L16 12L6 18V6Z" fill="#23875F"/>
<path fill-rule="evenodd" clip-rule="evenodd" d="M26 6L16 12L26 18V6Z" fill="#23875F"/>
<mask id="mask1_270_67369" style="mask-type:luminance" maskUnits="userSpaceOnUse" x="16" y="6" width="10" height="12">
<path fill-rule="evenodd" clip-rule="evenodd" d="M26 6L16 12L26 18V6Z" fill="white"/>
</mask>
<g mask="url(#mask1_270_67369)">
</g>
<path fill-rule="evenodd" clip-rule="evenodd" d="M16 16C18.2091 16 20 14.2091 20 12C20 9.79086 18.2091 8 16 8C13.7909 8 12 9.79086 12 12C12 14.2091 13.7909 16 16 16Z" fill="#C51918"/>
<path fill-rule="evenodd" clip-rule="evenodd" d="M15.9295 13.3133L13.8585 14.7497L14.5203 12.2894L13 10.7178L15.0585 10.6328L15.9295 8.20001L16.8004 10.6328H18.8554L17.3386 12.2894L18.0983 14.6045L15.9295 13.3133Z" fill="#FECA00"/>
</g>
<path fill-rule="evenodd" clip-rule="evenodd" d="M8.77667 4.44203L9.90843 3.74023L11.0937 4.37109L10.6786 3.24002L11.5075 2.43065H10.3844L9.90843 1.24203L9.43247 2.43065L8.30748 2.47217L9.13831 3.24002L8.77667 4.44203ZM14.7767 4.44203L15.9084 3.74023L17.0937 4.37109L16.6786 3.24002L17.5075 2.43065H16.3844L15.9084 1.24203L15.4325 2.43065L14.3075 2.47217L15.1383 3.24002L14.7767 4.44203ZM21.9084 3.74023L20.7767 4.44203L21.1383 3.24002L20.3075 2.47217L21.4325 2.43065L21.9084 1.24203L22.3844 2.43065H23.5075L22.6786 3.24002L23.0937 4.37109L21.9084 3.74023ZM8.77571 22.1672L9.90748 21.4654L11.0927 22.0962L10.6776 20.9651L11.5065 20.1558H10.3834L9.90748 18.9672L9.43151 20.1558L8.30652 20.1973L9.13735 20.9651L8.77571 22.1672ZM15.9075 21.4654L14.7757 22.1672L15.1374 20.9651L14.3065 20.1973L15.4315 20.1558L15.9075 18.9672L16.3834 20.1558H17.5065L16.6776 20.9651L17.0927 22.0962L15.9075 21.4654ZM20.7757 22.1672L21.9075 21.4654L23.0927 22.0962L22.6776 20.9651L23.5065 20.1558H22.3834L21.9075 18.9672L21.4315 20.1558L20.3065 20.1973L21.1374 20.9651L20.7757 22.1672Z" fill="#FECA00"/>
<path fill-rule="evenodd" clip-rule="evenodd" d="M8.63474 12.772C8.63474 12.772 9.17331 13.2514 9.46662 13.4147C9.56776 13.0314 9.3421 12.1629 9.3421 12.1629C9.27878 11.9553 8.58429 11.5831 8.58429 11.5831C8.58429 11.5831 8.38922 12.2385 8.63474 12.772Z" fill="#C51918"/>
<path fill-rule="evenodd" clip-rule="evenodd" d="M9.19579 13.9302C9.19579 13.9302 7.81256 13.2841 7.67199 12.3703C7.53143 11.4565 7.82953 9.99976 7.82953 9.99976C7.82953 9.99976 10.0757 10.5109 10.2286 11.6061C10.3814 12.7013 9.87404 13.3894 9.87404 13.3894C9.87404 13.3894 9.35449 12.0543 8.86421 11.9062C8.86421 11.9062 8.86421 13.2293 9.19579 13.9302Z" fill="#FECA00"/>
</g>
<defs>
<clipPath id="clip0_270_67369">
<rect width="32" height="24" fill="white"/>
</clipPath>
</defs>
</svg>

<svg width="32" height="24" fill="none" xmlns="http://www.w3.org/2000/svg">
  <mask id="a" maskUnits="userSpaceOnUse" x="0" y="0" width="32" height="24">
    <path fill="#fff" d="M0 0h32v24H0z"/>
  </mask>
  <g mask="url(#a)">
    <path fill-rule="evenodd" clip-rule="evenodd" d="M0 0h32v24H0V0z" fill="#C51918"/>
    <path fill-rule="evenodd" clip-rule="evenodd" d="M6 6h20v12H6V6z" fill="#FECA00"/>
    <mask id="b" maskUnits="userSpaceOnUse" x="6" y="6" width="20" height="12">
      <path fill-rule="evenodd" clip-rule="evenodd" d="M6 6h20v12H6V6z" fill="#fff"/>
    </mask>
    <g mask="url(#b)" fill-rule="evenodd" clip-rule="evenodd">
      <path d="M6 6l10 6-10 6V6zm20 0l-10 6 10 6V6z" fill="#23875F"/>
      <path d="M16 16a4 4 0 100-8 4 4 0 000 8z" fill="#C51918"/>
      <path d="M15.93 13.313l-2.072 1.437.662-2.46L13 10.717l2.059-.085.87-2.433.871 2.433h2.055l-1.516 1.656.76 2.316-2.17-1.292z" fill="#FECA00"/>
    </g>
    <path fill-rule="evenodd" clip-rule="evenodd" d="M8.777 4.442l1.131-.702 1.186.631-.415-1.131.829-.81h-1.124l-.476-1.188-.476 1.189-1.125.041.831.768-.361 1.202zm6 0l1.131-.702 1.186.631-.415-1.131.829-.81h-1.124l-.476-1.188-.476 1.189-1.125.041.831.768-.361 1.202zm7.131-.702l-1.131.702.361-1.202-.83-.768 1.125-.041.475-1.189.476 1.189h1.123l-.828.809.415 1.131-1.186-.63zM8.776 22.167l1.131-.702 1.186.631-.415-1.13.829-.81h-1.124l-.476-1.189-.475 1.189-1.125.041.83.768-.361 1.202zm7.132-.702l-1.132.702.361-1.202-.83-.768 1.124-.041.477-1.189.475 1.189h1.123l-.828.81.415 1.13-1.185-.63zm4.868.702l1.131-.702 1.186.631-.415-1.13.828-.81h-1.123l-.476-1.189-.476 1.189-1.125.041.831.768-.361 1.202z" fill="#FECA00"/>
    <path fill-rule="evenodd" clip-rule="evenodd" d="M8.635 12.772s.538.48.832.643c.1-.384-.125-1.252-.125-1.252-.063-.208-.758-.58-.758-.58s-.195.655.05 1.189z" fill="#C51918"/>
    <path fill-rule="evenodd" clip-rule="evenodd" d="M9.196 13.93s-1.383-.646-1.524-1.56c-.14-.913.158-2.37.158-2.37s2.246.51 2.399 1.606c.152 1.095-.355 1.783-.355 1.783s-.52-1.335-1.01-1.483c0 0 0 1.323.332 2.024z" fill="#FECA00"/>
  </g>
</svg>
